X:1
T: Willie Wilson of Beith
C:
R:Jig
Q:180
K:D
M:6/8
L:1/16
FE|D4d2 d4f2|e4d2 c2e2c2|d4A2 F2G2A2|B2c2d2 e2f2g2|f4d2 d2c2d2|e4d2 c2B2A2|B2G2e2 c2B2c2|d6 D4FE|
D4d2 d4f2|e4d2 c2e2c2|d4A2 F2G2A2|B2c2d2 e2f2g2|f4d2 d2c2d2|e4d2 c2B2A2|B2G2e2 c2B2c2|d6 D4e2|
f4d2 d2e2f2|e4d2 c2B2A2|B4G2 D2G2B2|A4G2 F2E2D2|B4G2 G2A2B2|F2A2d2 f4d2|B4e2 e4d2|c2B2A2 G2F2E2|
D4d2 d2e2f2|e4d2 c2e2c2|d4B2 D2G2B2|A4G2 F2E2D2|B2G2B2 d2c2B2|A2d2f2 a4A2|B2G2e2 c2B2c2|d6D4||
